symbolic/devices/cpu-symbolic.svg

<svg xmlns="http://www.w3.org/2000/svg" width="16" height="16" version="1.1">
 <path style="fill:#323a41" d="M 4.984375 0 A 1.0001 0.99420309 0 0 0 4 1.0078125 L 4 2 L 6 2 L 6 1.0078125 A 1.0001 0.99420309 0 0 0 4.984375 0 z M 7.984375 0 A 1.0001 0.99420309 0 0 0 7 1.0078125 L 7 2 L 9 2 L 9 1.0078125 A 1.0001 0.99420309 0 0 0 7.984375 0 z M 10.984375 0 A 1.0001 0.99420309 0 0 0 10 1.0078125 L 10 2 L 12 2 L 12 1.0078125 A 1.0001 0.99420309 0 0 0 10.984375 0 z M 5 3 C 3.892 3 3 3.892 3 5 L 3 11 C 3 12.108 3.892 13 5 13 L 11 13 C 12.108 13 13 12.108 13 11 L 13 5 C 13 3.892 12.108 3 11 3 L 5 3 z M 1.0078125 4 A 0.99420309 1.0001 0 1 0 1.0078125 6 L 2 6 L 2 4 L 1.0078125 4 z M 14 4 L 14 6 L 14.992188 6 A 0.99420309 1.0001 0 0 0 16 4.984375 A 0.99420309 1.0001 0 0 0 14.992188 4 L 14 4 z M 1.0078125 7 A 0.99420309 1.0001 0 1 0 1.0078125 9 L 2 9 L 2 7 L 1.0078125 7 z M 14 7 L 14 9 L 14.992188 9 A 0.99420309 1.0001 0 0 0 16 7.984375 A 0.99420309 1.0001 0 0 0 14.992188 7 L 14 7 z M 1.0078125 10 A 0.99420309 1.0001 0 1 0 1.0078125 12 L 2 12 L 2 10 L 1.0078125 10 z M 14 10 L 14 12 L 14.992188 12 A 0.99420309 1.0001 0 0 0 16 10.984375 A 0.99420309 1.0001 0 0 0 14.992188 10 L 14 10 z M 4 14 L 4 14.992188 A 1.0001 0.99420309 0 1 0 6 14.992188 L 6 14 L 4 14 z M 7 14 L 7 14.992188 A 1.0001 0.99420309 0 1 0 9 14.992188 L 9 14 L 7 14 z M 10 14 L 10 14.992188 A 1.0001 0.99420309 0 1 0 12 14.992188 L 12 14 L 10 14 z"/>
</svg>

<svg xmlns="http://www.w3.org/2000/svg" width="16" height="16"><path style="fill:#323a41" d="M4.984 0A1 .994 0 0 0 4 1.008V2h2v-.992A1 .994 0 0 0 4.984 0zm3 0A1 .994 0 0 0 7 1.008V2h2v-.992A1 .994 0 0 0 7.984 0zm3 0A1 .994 0 0 0 10 1.008V2h2v-.992A1 .994 0 0 0 10.984 0zM5 3c-1.108 0-2 .892-2 2v6c0 1.108.892 2 2 2h6c1.108 0 2-.892 2-2V5c0-1.108-.892-2-2-2H5zM1.008 4a.994 1 0 1 0 0 2H2V4h-.992zM14 4v2h.992A.994 1 0 0 0 16 4.984.994 1 0 0 0 14.992 4H14zM1.008 7a.994 1 0 1 0 0 2H2V7h-.992zM14 7v2h.992A.994 1 0 0 0 16 7.984.994 1 0 0 0 14.992 7H14zM1.008 10a.994 1 0 1 0 0 2H2v-2h-.992zM14 10v2h.992A.994 1 0 0 0 16 10.984.994 1 0 0 0 14.992 10H14zM4 14v.992a1 .994 0 1 0 2 0V14H4zm3 0v.992a1 .994 0 1 0 2 0V14H7zm3 0v.992a1 .994 0 1 0 2 0V14h-2z"/></svg>
